libs/icons/svgs/dock_right.svg

<svg viewBox="0 0 24 24" xmlns="http://www.w3.org/2000/svg">
<path d="M13 21C11.9471 21 11.082 20.1827 11.0055 19.1491L11 19V5C11 3.94714 11.8173 3.08197 12.8509 3.0055L13 3H19C20.0529 3 20.918 3.81731 20.9945 4.85093L21 5V19C21 20.0529 20.1827 20.918 19.1491 20.9945L19 21H13ZM3 10V5C3 3.94714 3.81731 3.08197 4.85093 3.0055L5 3H9V5H5V10H3ZM5 21C3.94714 21 3.08197 20.1827 3.0055 19.1491L3 19V14H5V19H9V21H5Z"/>
</svg>

<svg xmlns="http://www.w3.org/2000/svg" width="24" height="24">
    <path d="M13 21a2.002 2.002 0 01-1.995-1.85L11 19V5c0-1.053.817-1.918 1.85-1.994L13 3h6c1.053 0 1.918.817 1.994 1.85L21 5v14a2.002 2.002 0 01-1.85 1.994L19 21h-6zM3 10V5c0-1.053.817-1.918 1.85-1.994L5 3h4v2H5v5H3zm2 11a2.002 2.002 0 01-1.994-1.85L3 19v-5h2v5h4v2H5z"/>
</svg>
